public/styledcomponents.svg

<?xml version="1.0" encoding="UTF-8" standalone="no" ?>
<!DOCTYPE svg PUBLIC "-//W3C//DTD SVG 1.1//EN" "http://www.w3.org/Graphics/SVG/1.1/DTD/svg11.dtd">
<svg xmlns="http://www.w3.org/2000/svg" xmlns:xlink="http://www.w3.org/1999/xlink" version="1.1" width="1080" height="1080" viewBox="0 0 1080 1080" xml:space="preserve">
<desc>Created with Fabric.js 5.2.4</desc>
<defs>
</defs>
<g transform="matrix(1 0 0 1 540 540)" id="142ce6a3-795f-4340-9352-8a88e32e70a9"  >
<rect style="stroke: none; stroke-width: 1; stroke-dasharray: none; stroke-linecap: butt; stroke-dashoffset: 0; stroke-linejoin: miter; stroke-miterlimit: 4; fill: rgb(255,255,255); fill-rule: nonzero; opacity: 1; visibility: hidden;" vector-effect="non-scaling-stroke"  x="-540" y="-540" rx="0" ry="0" width="1080" height="1080" />
</g>
<g transform="matrix(1 0 0 1 540 540)" id="4e748887-05f7-4fd0-aca2-a7ed58726769"  >
</g>
<g transform="matrix(3.34 0 0 3.34 540 540)"  >
<path style="stroke: none; stroke-width: 1; stroke-dasharray: none; stroke-linecap: butt; stroke-dashoffset: 0; stroke-linejoin: miter; stroke-miterlimit: 4; fill: rgb(0,0,0); fill-rule: evenodd; opacity: 1;" vector-effect="non-scaling-stroke"  transform=" translate(-150.67, -186.97)" d="M 44.284 229.416 C 39.856 229.416 36.94 231.792 36.94 234.96 C 36.94 237.768 38.668 239.64000000000001 42.592 240.72 C 46.156 241.728 46.912 242.232 46.912 243.816 C 46.912 245.256 45.58 246.12 43.528 246.12 C 41.583999999999996 246.12 39.82 245.364 38.344 244.248 L 36.04 246.84 C 37.804 248.424 40.36 249.54 43.635999999999996 249.54 C 47.992 249.54 51.663999999999994 247.452 51.663999999999994 243.492 C 51.663999999999994 240.108 49.467999999999996 238.524 45.58 237.48 C 42.339999999999996 236.57999999999998 41.583999999999996 236.004 41.583999999999996 234.744 C 41.583999999999996 233.592 42.62799999999999 232.836 44.464 232.836 C 46.156 232.836 47.668 233.376 49.251999999999995 234.38400000000001 L 51.05199999999999 231.68400000000003 C 49.251999999999995 230.28000000000003 47.019999999999996 229.41600000000003 44.28399999999999 229.41600000000003 z M 64.696 245.148 L 66.316 248.1 C 64.94800000000001 249.072 63.22 249.54 61.528000000000006 249.54 C 57.784000000000006 249.504 55.804 247.38 55.804 243.31199999999998 L 55.804 233.26799999999997 L 52.816 233.26799999999997 L 52.816 229.95599999999996 L 55.804 229.95599999999996 L 55.804 225.74399999999997 L 60.412 225.20399999999998 L 60.412 229.956 L 64.84 229.956 L 64.372 233.268 L 60.412 233.268 L 60.412 243.204 C 60.412 245.07600000000002 61.024 245.832 62.428 245.832 C 63.147999999999996 245.832 63.867999999999995 245.61599999999999 64.696 245.148 z M 84.316 229.956 L 78.124 249.072 C 76.684 253.536 73.87599999999999 256.416 68.22399999999999 256.848 L 67.75599999999999 253.5 C 71.53599999999999 252.924 72.75999999999999 251.7 73.83999999999999 249 L 72.25599999999999 249 L 66.20799999999998 229.956 L 71.10399999999998 229.956 L 75.24399999999999 245.94 L 79.564 229.956 z M 91.624 249.54 C 92.67805059993427 249.53997043575464 93.72041625953938 249.31923417842648 94.684 248.892 L 93.712 245.652 C 93.388 245.76 93.06400000000001 245.832 92.632 245.832 C 91.876 245.832 91.552 245.4 91.552 244.5 L 91.552 221.82 L 86.944 222.32399999999998 L 86.944 244.64399999999998 C 86.944 247.77599999999998 88.708 249.53999999999996 91.624 249.53999999999996 z M 113.368 239.028 C 113.368 239.64 113.29599999999999 240.396 113.25999999999999 240.9 L 101.30799999999999 240.9 C 101.63199999999999 244.788 103.46799999999999 246.048 105.988 246.048 C 107.67999999999999 246.048 109.084 245.508 110.74 244.356 L 112.648 246.98399999999998 C 110.776 248.49599999999998 108.472 249.54 105.592 249.54 C 99.688 249.54 96.52 245.61599999999999 96.52 239.60399999999998 C 96.52 233.808 99.58 229.416 104.97999999999999 229.416 C 110.30799999999999 229.416 113.368 233.016 113.368 239.028 z M 108.79599999999999 237.91199999999998 L 108.79599999999999 237.69599999999997 C 108.79599999999999 234.56399999999996 107.67999999999999 232.69199999999998 105.088 232.69199999999998 C 102.928 232.69199999999998 101.55999999999999 234.13199999999998 101.30799999999999 237.91199999999998 z M 128.92 221.82 L 133.528 222.32399999999998 L 133.528 249 L 129.45999999999998 249 L 129.13599999999997 246.588 C 127.98399999999997 248.316 126.14799999999997 249.54 123.69999999999996 249.54 C 118.94799999999996 249.54 116.46399999999996 245.54399999999998 116.46399999999996 239.49599999999998 C 116.46399999999996 233.628 119.41599999999995 229.41599999999997 124.13199999999996 229.41599999999997 C 126.14799999999997 229.41599999999997 127.73199999999996 230.27999999999997 128.91999999999996 231.46799999999996 z M 124.99599999999998 246.048 C 126.68799999999997 246.048 127.83999999999997 245.22 128.92 243.6 L 128.92 234.888 C 127.91199999999999 233.66400000000002 126.832 232.872 125.28399999999999 232.872 C 122.90799999999999 232.872 121.324 234.888 121.324 239.46 C 121.324 244.356 122.728 246.048 124.996 246.048 z M 44.44 265.416 C 38.967999999999996 265.416 35.548 269.556 35.548 275.64 C 35.548 281.724 38.968 285.53999999999996 44.476 285.53999999999996 C 46.924 285.53999999999996 48.903999999999996 284.748 50.632 283.34399999999994 L 48.58 280.42799999999994 C 47.176 281.3279999999999 46.168 281.79599999999994 44.728 281.79599999999994 C 42.136 281.79599999999994 40.444 280.17599999999993 40.444 275.5679999999999 C 40.444 270.9959999999999 42.064 269.0519999999999 44.728 269.0519999999999 C 46.168 269.0519999999999 47.32 269.4839999999999 48.58 270.4199999999999 L 50.632 267.6479999999999 C 48.832 266.0999999999999 46.924 265.4159999999999 44.44 265.4159999999999 z M 61.756 265.416 C 67.372 265.416 70.684 269.23199999999997 70.684 275.46 C 70.684 281.472 67.336 285.53999999999996 61.72 285.53999999999996 C 56.104 285.53999999999996 52.756 281.724 52.756 275.46 C 52.756 269.484 56.104 265.416 61.756 265.416 z M 61.756 268.908 C 59.056 268.908 57.616 270.96000000000004 57.616 275.46000000000004 C 57.616 280.03200000000004 59.019999999999996 282.04800000000006 61.72 282.04800000000006 C 64.42 282.04800000000006 65.824 279.99600000000004 65.824 275.46000000000004 C 65.824 270.92400000000004 64.42 268.908 61.756 268.908 z M 95.2 265.416 C 92.68 265.416 90.916 266.64 89.476 268.62 C 88.756 266.604 87.1 265.416 84.868 265.416 C 82.45599999999999 265.416 80.728 266.532 79.36 268.44 L 79 265.956 L 75.004 265.956 L 75.004 285 L 79.61200000000001 285 L 79.61200000000001 271.752 C 80.656 269.988 81.62800000000001 268.872 83.248 268.872 C 84.364 268.872 85.336 269.55600000000004 85.336 271.932 L 85.336 285 L 89.944 285 L 89.944 271.752 C 90.988 269.988 91.96000000000001 268.872 93.544 268.872 C 94.696 268.872 95.63199999999999 269.55600000000004 95.63199999999999 271.932 L 95.63199999999999 285 L 100.24 285 L 100.24 271.212 C 100.24 267.61199999999997 98.22399999999999 265.416 95.19999999999999 265.416 z M 115.468 265.416 C 120.436 265.416 122.524 269.34 122.524 275.424 C 122.524 281.256 119.824 285.53999999999996 115 285.53999999999996 C 113.056 285.53999999999996 111.4 284.85599999999994 110.212 283.45199999999994 L 110.212 292.34399999999994 L 105.604 292.84799999999996 L 105.604 265.95599999999996 L 109.636 265.95599999999996 L 109.88799999999999 268.29599999999994 C 111.39999999999999 266.3159999999999 113.416 265.41599999999994 115.46799999999999 265.41599999999994 z M 113.70400000000001 282.012 C 116.224 282.012 117.7 280.068 117.7 275.46 C 117.7 270.63599999999997 116.404 268.87199999999996 114.10000000000001 268.87199999999996 C 112.48 268.87199999999996 111.11200000000001 269.98799999999994 110.212 271.46399999999994 L 110.212 280.0319999999999 C 111.11200000000001 281.3639999999999 112.26400000000001 282.01199999999994 113.70400000000001 282.01199999999994 z M 134.836 265.416 C 140.452 265.416 143.764 269.23199999999997 143.764 275.46 C 143.764 281.472 140.416 285.53999999999996 134.8 285.53999999999996 C 129.18400000000003 285.53999999999996 125.83600000000001 281.724 125.83600000000001 275.46 C 125.83600000000001 269.484 129.18400000000003 265.416 134.836 265.416 z M 134.836 268.908 C 132.13600000000002 268.908 130.69600000000003 270.96000000000004 130.69600000000003 275.46000000000004 C 130.69600000000003 280.03200000000004 132.10000000000002 282.04800000000006 134.80000000000004 282.04800000000006 C 137.50000000000006 282.04800000000006 138.90400000000005 279.99600000000004 138.90400000000005 275.46000000000004 C 138.90400000000005 270.92400000000004 137.50000000000006 268.908 134.83600000000004 268.908 z M 158.23600000000002 265.416 C 155.824 265.416 153.91600000000003 266.532 152.44000000000003 268.44 L 152.08 265.956 L 148.084 265.956 L 148.084 285 L 152.692 285 L 152.692 271.752 C 153.80800000000002 269.988 155.032 268.872 156.68800000000002 268.872 C 158.12800000000001 268.872 159.02800000000002 269.55600000000004 159.02800000000002 271.932 L 159.02800000000002 285 L 163.63600000000002 285 L 163.63600000000002 271.212 C 163.63600000000002 267.57599999999996 161.65600000000003 265.416 158.23600000000002 265.416 z M 184.62400000000002 275.028 C 184.62400000000002 275.64000000000004 184.55200000000002 276.396 184.51600000000002 276.90000000000003 L 172.56400000000002 276.90000000000003 C 172.88800000000003 280.788 174.72400000000002 282.04800000000006 177.24400000000003 282.04800000000006 C 178.93600000000004 282.04800000000006 180.34000000000003 281.50800000000004 181.99600000000004 280.35600000000005 L 183.90400000000002 282.98400000000004 C 182.032 284.49600000000004 179.72800000000004 285.54 176.848 285.54 C 170.94400000000002 285.54 167.776 281.61600000000004 167.776 275.60400000000004 C 167.776 269.80800000000005 170.836 265.41600000000005 176.23600000000002 265.41600000000005 C 181.56400000000002 265.41600000000005 184.62400000000002 269.0160000000001 184.62400000000002 275.0280000000001 z M 180.05200000000002 273.91200000000003 L 180.05200000000002 273.696 C 180.05200000000002 270.564 178.936 268.692 176.34400000000002 268.692 C 174.18400000000003 268.692 172.81600000000003 270.132 172.56400000000002 273.91200000000003 z M 198.91600000000003 265.41600000000005 C 196.50400000000002 265.41600000000005 194.59600000000003 266.53200000000004 193.12000000000003 268.44000000000005 L 192.76000000000002 265.9560000000001 L 188.764 265.9560000000001 L 188.764 285 L 193.372 285 L 193.372 271.752 C 194.48800000000003 269.988 195.71200000000002 268.872 197.36800000000002 268.872 C 198.80800000000002 268.872 199.70800000000003 269.55600000000004 199.70800000000003 271.932 L 199.70800000000003 285 L 204.31600000000003 285 L 204.31600000000003 271.212 C 204.31600000000003 267.57599999999996 202.33600000000004 265.416 198.91600000000003 265.416 z M 218.96800000000002 281.148 C 218.14000000000001 281.61600000000004 217.42000000000002 281.83200000000005 216.70000000000002 281.83200000000005 C 215.29600000000002 281.83200000000005 214.68400000000003 281.0760000000001 214.68400000000003 279.20400000000006 L 214.68400000000003 269.2680000000001 L 218.64400000000003 269.2680000000001 L 219.11200000000002 265.9560000000001 L 214.68400000000003 265.9560000000001 L 214.68400000000003 261.20400000000006 L 210.07600000000002 261.7440000000001 L 210.07600000000002 265.9560000000001 L 207.08800000000002 265.9560000000001 L 207.08800000000002 269.2680000000001 L 210.07600000000002 269.2680000000001 L 210.07600000000002 279.31200000000007 C 210.07600000000002 283.38000000000005 212.056 285.5040000000001 215.8 285.5400000000001 C 217.49200000000002 285.5400000000001 219.22 285.07200000000006 220.58800000000002 284.1000000000001 z M 229.192 265.41600000000005 C 224.764 265.41600000000005 221.848 267.79200000000003 221.848 270.96000000000004 C 221.848 273.76800000000003 223.57600000000002 275.64000000000004 227.5 276.72 C 231.064 277.728 231.82 278.232 231.82 279.81600000000003 C 231.82 281.25600000000003 230.488 282.12 228.436 282.12 C 226.49200000000002 282.12 224.728 281.36400000000003 223.252 280.248 L 220.948 282.84 C 222.71200000000002 284.424 225.268 285.53999999999996 228.544 285.53999999999996 C 232.9 285.53999999999996 236.572 283.45199999999994 236.572 279.49199999999996 C 236.572 276.10799999999995 234.376 274.52399999999994 230.488 273.47999999999996 C 227.248 272.58 226.492 272.00399999999996 226.492 270.74399999999997 C 226.492 269.592 227.536 268.83599999999996 229.37199999999999 268.83599999999996 C 231.064 268.83599999999996 232.576 269.376 234.16 270.38399999999996 L 235.96 267.68399999999997 C 234.16 266.28 231.928 265.416 229.192 265.416 z M 79.8 87.2 L 43.599999999999994 109.7 L 79.8 132.6 L 76.1 137.2 L 38.39999999999999 113.6 L 38.39999999999999 105.69999999999999 L 76.5 82.1 M 265.8 104.8 L 265.8 112.6 L 228.10000000000002 136.2 L 224.40000000000003 131.29999999999998 L 260.50000000000006 108.69999999999999 L 224.4 86 L 227.6 81.1" stroke-linecap="round" />
</g>
<g transform="matrix(4 0 0 4 513.13 369.41)" style=""  >
		<text xml:space="preserve" font-family="AppleColorEmoji, Apple Color Emoji" font-size="100" font-style="normal" font-weight="normal" style="stroke: none; stroke-width: 1; stroke-dasharray: none; stroke-linecap: butt; stroke-dashoffset: 0; stroke-linejoin: miter; stroke-miterlimit: 4; fill: rgb(0,0,0); fill-rule: evenodd; opacity: 1; white-space: pre;" ><tspan x="-68.65" y="31.41" >💅</tspan></text>
</g>
</svg>

<svg xmlns="http://www.w3.org/2000/svg" xmlns:xlink="http://www.w3.org/1999/xlink" viewBox="0 0 318 318" width="250" height="250"><defs><path id="a" d="M0 0h318v318H0z"/><mask id="b" fill="#000" height="318" width="318" x="0" y="0"><use xlink:href="#a"/></mask></defs><g fill="none" fill-rule="evenodd"><use mask="url(#b)" stroke="#4a4a4a" stroke-width="8" xlink:href="#a"/><path d="M44.284 229.416c-4.428 0-7.344 2.376-7.344 5.544 0 2.808 1.728 4.68 5.652 5.76 3.564 1.008 4.32 1.512 4.32 3.096 0 1.44-1.332 2.304-3.384 2.304-1.944 0-3.708-.756-5.184-1.872l-2.304 2.592c1.764 1.584 4.32 2.7 7.596 2.7 4.356 0 8.028-2.088 8.028-6.048 0-3.384-2.196-4.968-6.084-6.012-3.24-.9-3.996-1.476-3.996-2.736 0-1.152 1.044-1.908 2.88-1.908 1.692 0 3.204.54 4.788 1.548l1.8-2.7c-1.8-1.404-4.032-2.268-6.768-2.268zm20.412 15.732l1.62 2.952c-1.368.972-3.096 1.44-4.788 1.44-3.744-.036-5.724-2.16-5.724-6.228v-10.044h-2.988v-3.312h2.988v-4.212l4.608-.54v4.752h4.428l-.468 3.312h-3.96v9.936c0 1.872.612 2.628 2.016 2.628.72 0 1.44-.216 2.268-.684zm19.62-15.192l-6.192 19.116c-1.44 4.464-4.248 7.344-9.9 7.776l-.468-3.348c3.78-.576 5.004-1.8 6.084-4.5h-1.584l-6.048-19.044h4.896l4.14 15.984 4.32-15.984zm7.308 19.584a7.55 7.55 0 0 0 3.06-.648l-.972-3.24c-.324.108-.648.18-1.08.18-.756 0-1.08-.432-1.08-1.332v-22.68l-4.608.504v22.32c0 3.132 1.764 4.896 4.68 4.896zm21.744-10.512c0 .612-.072 1.368-.108 1.872h-11.952c.324 3.888 2.16 5.148 4.68 5.148 1.692 0 3.096-.54 4.752-1.692l1.908 2.628c-1.872 1.512-4.176 2.556-7.056 2.556-5.904 0-9.072-3.924-9.072-9.936 0-5.796 3.06-10.188 8.46-10.188 5.328 0 8.388 3.6 8.388 9.612zm-4.572-1.116v-.216c0-3.132-1.116-5.004-3.708-5.004-2.16 0-3.528 1.44-3.78 5.22zm20.124-16.092l4.608.504V249h-4.068l-.324-2.412c-1.152 1.728-2.988 2.952-5.436 2.952-4.752 0-7.236-3.996-7.236-10.044 0-5.868 2.952-10.08 7.668-10.08 2.016 0 3.6.864 4.788 2.052zm-3.924 24.228c1.692 0 2.844-.828 3.924-2.448v-8.712c-1.008-1.224-2.088-2.016-3.636-2.016-2.376 0-3.96 2.016-3.96 6.588 0 4.896 1.404 6.588 3.672 6.588zM44.44 265.416c-5.472 0-8.892 4.14-8.892 10.224s3.42 9.9 8.928 9.9c2.448 0 4.428-.792 6.156-2.196l-2.052-2.916c-1.404.9-2.412 1.368-3.852 1.368-2.592 0-4.284-1.62-4.284-6.228 0-4.572 1.62-6.516 4.284-6.516 1.44 0 2.592.432 3.852 1.368l2.052-2.772c-1.8-1.548-3.708-2.232-6.192-2.232zm17.316 0c5.616 0 8.928 3.816 8.928 10.044 0 6.012-3.348 10.08-8.964 10.08s-8.964-3.816-8.964-10.08c0-5.976 3.348-10.044 9-10.044zm0 3.492c-2.7 0-4.14 2.052-4.14 6.552 0 4.572 1.404 6.588 4.104 6.588s4.104-2.052 4.104-6.588-1.404-6.552-4.068-6.552zm33.444-3.492c-2.52 0-4.284 1.224-5.724 3.204-.72-2.016-2.376-3.204-4.608-3.204-2.412 0-4.14 1.116-5.508 3.024l-.36-2.484h-3.996V285h4.608v-13.248c1.044-1.764 2.016-2.88 3.636-2.88 1.116 0 2.088.684 2.088 3.06V285h4.608v-13.248c1.044-1.764 2.016-2.88 3.6-2.88 1.152 0 2.088.684 2.088 3.06V285h4.608v-13.788c0-3.6-2.016-5.796-5.04-5.796zm20.268 0c4.968 0 7.056 3.924 7.056 10.008 0 5.832-2.7 10.116-7.524 10.116-1.944 0-3.6-.684-4.788-2.088v8.892l-4.608.504v-26.892h4.032l.252 2.34c1.512-1.98 3.528-2.88 5.58-2.88zm-1.764 16.596c2.52 0 3.996-1.944 3.996-6.552 0-4.824-1.296-6.588-3.6-6.588-1.62 0-2.988 1.116-3.888 2.592v8.568c.9 1.332 2.052 1.98 3.492 1.98zm21.132-16.596c5.616 0 8.928 3.816 8.928 10.044 0 6.012-3.348 10.08-8.964 10.08s-8.964-3.816-8.964-10.08c0-5.976 3.348-10.044 9-10.044zm0 3.492c-2.7 0-4.14 2.052-4.14 6.552 0 4.572 1.404 6.588 4.104 6.588s4.104-2.052 4.104-6.588-1.404-6.552-4.068-6.552zm23.4-3.492c-2.412 0-4.32 1.116-5.796 3.024l-.36-2.484h-3.996V285h4.608v-13.248c1.116-1.764 2.34-2.88 3.996-2.88 1.44 0 2.34.684 2.34 3.06V285h4.608v-13.788c0-3.636-1.98-5.796-5.4-5.796zm26.388 9.612c0 .612-.072 1.368-.108 1.872h-11.952c.324 3.888 2.16 5.148 4.68 5.148 1.692 0 3.096-.54 4.752-1.692l1.908 2.628c-1.872 1.512-4.176 2.556-7.056 2.556-5.904 0-9.072-3.924-9.072-9.936 0-5.796 3.06-10.188 8.46-10.188 5.328 0 8.388 3.6 8.388 9.612zm-4.572-1.116v-.216c0-3.132-1.116-5.004-3.708-5.004-2.16 0-3.528 1.44-3.78 5.22zm18.864-8.496c-2.412 0-4.32 1.116-5.796 3.024l-.36-2.484h-3.996V285h4.608v-13.248c1.116-1.764 2.34-2.88 3.996-2.88 1.44 0 2.34.684 2.34 3.06V285h4.608v-13.788c0-3.636-1.98-5.796-5.4-5.796zm20.052 15.732c-.828.468-1.548.684-2.268.684-1.404 0-2.016-.756-2.016-2.628v-9.936h3.96l.468-3.312h-4.428v-4.752l-4.608.54v4.212h-2.988v3.312h2.988v10.044c0 4.068 1.98 6.192 5.724 6.228 1.692 0 3.42-.468 4.788-1.44zm10.224-15.732c-4.428 0-7.344 2.376-7.344 5.544 0 2.808 1.728 4.68 5.652 5.76 3.564 1.008 4.32 1.512 4.32 3.096 0 1.44-1.332 2.304-3.384 2.304-1.944 0-3.708-.756-5.184-1.872l-2.304 2.592c1.764 1.584 4.32 2.7 7.596 2.7 4.356 0 8.028-2.088 8.028-6.048 0-3.384-2.196-4.968-6.084-6.012-3.24-.9-3.996-1.476-3.996-2.736 0-1.152 1.044-1.908 2.88-1.908 1.692 0 3.204.54 4.788 1.548l1.8-2.7c-1.8-1.404-4.032-2.268-6.768-2.268zM79.8 87.2l-36.2 22.5 36.2 22.9-3.7 4.6-37.7-23.6v-7.9l38.1-23.6m189.3 22.7v7.8l-37.7 23.6-3.7-4.9 36.1-22.6L224.4 86l3.2-4.9" fill="#000"/><text fill="#000" font-family="AppleColorEmoji, Apple Color Emoji" font-size="100" letter-spacing=".5" transform="translate(38 44)"><tspan x="45" y="100">💅</tspan></text></g></svg>
